X: 1
T: LIGHT AND AIRY -- JIG
B: Ryan's Mammoth Collection of Fiddle Tunes
R: jig
M: 6/8
L: 1/8
Z: Contributed 20010707133224 by John Chambers jmchambers:rcn.net
K: G
  vd3 BdB | GBd gdB | kd3 BdB | A2B c2"4"e \
| kd3 BdB | GBd gdB | cac BgB | A2B c2"4"e :|
|: (vga)g gdB | (ga)g (gb)a | (ga)g   gdB   | A2B c2"4"e \
|     gag gdB |  gfe   dcB  | (ca).c (Bg).B | A2B c2"4"e :|
|: vdBG G2B | dBG Bdg | dBG G2B | A2B c2e \
| dBG GBd | gfe dcB | (ca).c (Bg).B | A2B c2e "D.C."[|]:|
